public/themes/horror/shadow.svg

<?xml version="1.0" encoding="UTF-8" standalone="no"?>
<svg
   viewBox="159.5773 101.5463 277.9269 249.0317"
   width="277.927px"
   height="249.032px"
   preserveAspectRatio="none"
   version="1.1"
   id="svg2"
   sodipodi:docname="shadow.svg"
   inkscape:version="1.4.2 (ebf0e940, 2025-05-08)"
   xmlns:inkscape="http://www.inkscape.org/namespaces/inkscape"
   xmlns:sodipodi="http://sodipodi.sourceforge.net/DTD/sodipodi-0.dtd"
   xmlns="http://www.w3.org/2000/svg"
   xmlns:svg="http://www.w3.org/2000/svg">
  <defs
     id="defs2" />
  <sodipodi:namedview
     id="namedview2"
     pagecolor="#ffffff"
     bordercolor="#000000"
     borderopacity="0.25"
     inkscape:showpageshadow="2"
     inkscape:pageopacity="0.0"
     inkscape:pagecheckerboard="0"
     inkscape:deskcolor="#d1d1d1"
     inkscape:zoom="1.9111209"
     inkscape:cx="112.2378"
     inkscape:cy="149.6504"
     inkscape:window-width="1712"
     inkscape:window-height="971"
     inkscape:window-x="0"
     inkscape:window-y="39"
     inkscape:window-maximized="1"
     inkscape:current-layer="object-0" />
  <g
     id="object-0"
     transform="matrix(1, 0, 0, 1, 0, -8.881784197001252e-16)"
     style="fill:#800a00;fill-opacity:1">
    <path
       fill="#800a00"
       d="M 298.161 158.515 C 297 158.545 295.813 158.894 294.633 159.688 L 279.828 167.04 L 279.776 168.298 C 279.169 183.072 268.453 249.488 263.915 259.251 C 263.915 259.251 215.947 334.649 210.392 337.411 L 238.906 340.319 C 239.47 336.989 281 264.147 282.231 260.45 C 283.772 255.819 286.358 222.389 287.36 220.687 C 292.775 218.005 298.274 215.528 303.769 215.427 C 309.165 215.327 314.561 217.423 320.123 223.967 C 321.914 227.574 323.253 231.332 323.854 235.332 C 324.433 231.144 324.478 226.047 322.468 221.811 L 317.024 203.923 L 303.134 204.152 C 304.664 200.226 307.145 198.303 310.486 197.738 C 314.332 197.088 319.232 198.498 324.324 201.375 C 326.797 204.244 328.838 207.45 330.155 211.218 C 329.975 206.44 328.955 200.821 325.46 197.592 L 315.32 183.942 L 300.022 190.38 C 300.994 186.393 303.17 183.162 306.218 181.204 C 309.602 179.033 314.008 178.503 318.716 180.48 C 321.572 182.281 324.071 184.573 325.978 187.677 C 325.193 184.091 323.812 180.204 321.334 177.859 L 308.894 165.189 L 308.179 166.096 C 303.454 172.087 299.124 176.304 295.625 178.836 C 292.125 181.369 289.393 182.044 288.324 181.636 C 287.789 181.433 287.714 181.281 287.626 180.81 C 287.539 180.339 287.569 179.242 288.034 177.612 C 288.916 174.514 291.242 169.738 295.332 163.706 C 298.312 161.813 301.269 160.684 304.185 160.855 C 302.439 159.529 300.35 158.458 298.161 158.515 Z"
       style="stroke-width:1;fill:#800a00;fill-opacity:1"
       id="path1" />
    <path
       style="fill:#800a00;fill-opacity:1;stroke:none;stroke-width:0;stroke-dasharray:none"
       d="m 166.558,338.499 74.173,-77.417 1.503,-128.458 115.949,-0.769 0.983,129.86 -64.374,88.863 121.596,-16.895 -19.23,-15.602 22.461,-19.537 -36.528,-22.909 47.951,-39.729 -50.595,-14.461 53.399,-27.046 c -16.013,-8.5 -32.026,-17.081 -48.039,-25.743 -12.107,-6.549 0.49,-12.098 37.791,-16.647 15.27,-1.862 1.043,-7.615 -42.68,-17.258 -14.546,-3.208 -1.006,-9.416 40.621,-18.625 42.959,-9.504 -0.777,-14.363 -131.208,-14.579 -33.397,-0.055 -66.68,3.132 -99.848,9.563 -12.036,2.334 -21.568,10.101 -28.597,23.303 -5.453,10.243 5.188,14.908 31.923,13.995 13.549,-0.463 4.376,9.026 -27.519,28.467 -10.365,6.318 -0.499,13.39 29.599,21.216 10.04,2.611 1.577,8.61 -25.391,17.997 -8.82,3.07 -12.298,11.738 -10.432,26.004 1.247,9.535 10.813,10.859 28.697,3.973 12.867,-4.954 8.343,8.07 -13.575,39.074 -10.004,14.151 -13.242,31.176 -9.714,51.074"
       id="path2"
       sodipodi:nodetypes="cccccccccccccccccccccccccccc" />
  </g>
</svg>

<?xml version="1.0" encoding="utf-8"?>
<svg xmlns="http://www.w3.org/2000/svg" viewBox="159.5773 101.5463 277.9269 249.0317" width="277.927px" height="249.032px" preserveAspectRatio="none"><g id="object-0" transform="matrix(1, 0, 0, 1, 0, -8.881784197001252e-16)"><path fill="#800a00" d="M 298.161 158.515 C 297 158.545 295.813 158.894 294.633 159.688 L 279.828 167.04 L 279.776 168.298 C 279.169 183.072 268.453 249.488 263.915 259.251 C 263.915 259.251 215.947 334.649 210.392 337.411 L 238.906 340.319 C 239.47 336.989 281 264.147 282.231 260.45 C 283.772 255.819 286.358 222.389 287.36 220.687 C 292.775 218.005 298.274 215.528 303.769 215.427 C 309.165 215.327 314.561 217.423 320.123 223.967 C 321.914 227.574 323.253 231.332 323.854 235.332 C 324.433 231.144 324.478 226.047 322.468 221.811 L 317.024 203.923 L 303.134 204.152 C 304.664 200.226 307.145 198.303 310.486 197.738 C 314.332 197.088 319.232 198.498 324.324 201.375 C 326.797 204.244 328.838 207.45 330.155 211.218 C 329.975 206.44 328.955 200.821 325.46 197.592 L 315.32 183.942 L 300.022 190.38 C 300.994 186.393 303.17 183.162 306.218 181.204 C 309.602 179.033 314.008 178.503 318.716 180.48 C 321.572 182.281 324.071 184.573 325.978 187.677 C 325.193 184.091 323.812 180.204 321.334 177.859 L 308.894 165.189 L 308.179 166.096 C 303.454 172.087 299.124 176.304 295.625 178.836 C 292.125 181.369 289.393 182.044 288.324 181.636 C 287.789 181.433 287.714 181.281 287.626 180.81 C 287.539 180.339 287.569 179.242 288.034 177.612 C 288.916 174.514 291.242 169.738 295.332 163.706 C 298.312 161.813 301.269 160.684 304.185 160.855 C 302.439 159.529 300.35 158.458 298.161 158.515 Z" style="stroke-width: 1;"/><path style="stroke: rgb(0, 0, 0);" d="M 166.558 338.499 L 240.731 261.082 L 242.234 132.624 L 358.183 131.855 L 359.166 261.715 L 294.792 350.578 L 416.388 333.683 L 397.158 318.081 L 419.619 298.544 L 383.091 275.635 L 431.042 235.906 L 380.447 221.445 L 433.846 194.399 C 417.833 185.899 401.82 177.318 385.807 168.656 C 373.7 162.107 386.297 156.558 423.598 152.009 C 438.868 150.147 424.641 144.394 380.918 134.751 C 366.372 131.543 379.912 125.335 421.539 116.126 C 464.498 106.622 420.762 101.763 290.331 101.547 C 256.934 101.492 223.651 104.679 190.483 111.11 C 178.447 113.444 168.915 121.211 161.886 134.413 C 156.433 144.656 167.074 149.321 193.809 148.408 C 207.358 147.945 198.185 157.434 166.29 176.875 C 155.925 183.193 165.791 190.265 195.889 198.091 C 205.929 200.702 197.466 206.701 170.498 216.088 C 161.678 219.158 158.2 227.826 160.066 242.092 C 161.313 251.627 170.879 252.951 188.763 246.065 C 201.63 241.111 197.106 254.135 175.188 285.139 C 165.184 299.29 161.946 316.315 165.474 336.213"/></g></svg>
